src/theme/images/streamlineIcons/galerie-fill.svg

<svg fill="none" height="24" viewBox="0 0 24 24" width="24" xmlns="http://www.w3.org/2000/svg"><g fill="#212121"><path d="m6.5 1.99609c0-.55228.44772-.999996 1-.999996h9c.5523 0 1 .447716 1 .999996v20.00001c0 .5523-.4477 1-1 1h-9c-.55229 0-1-.4477-1-1z"/><path d="m0 3.49609c0-.55228.447715-1 1-1h2.5c.55228 0 1 .44772 1 1v17.00001c0 .5523-.44772 1-1 1h-2.5c-.552285 0-1-.4477-1-1z"/><path d="m19.5 3.49609c0-.55228.4477-1 1-1h2.5c.5523 0 1 .44772 1 1v17.00001c0 .5523-.4477 1-1 1h-2.5c-.5523 0-1-.4477-1-1z"/></g></svg>

<svg width="24" height="24" viewBox="0 0 24 24" fill="none" xmlns="http://www.w3.org/2000/svg">
<path d="M6.5 1.99609C6.5 1.44381 6.94772 0.996094 7.5 0.996094H16.5C17.0523 0.996094 17.5 1.44381 17.5 1.99609V21.9961C17.5 22.5484 17.0523 22.9961 16.5 22.9961H7.5C6.94771 22.9961 6.5 22.5484 6.5 21.9961V1.99609Z" fill="#212121"/>
<path d="M0 3.49609C0 2.94381 0.447715 2.49609 1 2.49609H3.5C4.05228 2.49609 4.5 2.94381 4.5 3.49609V20.4961C4.5 21.0484 4.05228 21.4961 3.5 21.4961H1C0.447715 21.4961 0 21.0484 0 20.4961V3.49609Z" fill="#212121"/>
<path d="M19.5 3.49609C19.5 2.94381 19.9477 2.49609 20.5 2.49609H23C23.5523 2.49609 24 2.94381 24 3.49609V20.4961C24 21.0484 23.5523 21.4961 23 21.4961H20.5C19.9477 21.4961 19.5 21.0484 19.5 20.4961V3.49609Z" fill="#212121"/>
</svg>
